X: 1041
T: Yellow Gals
C:Traditional
B: jims roots
M:C|
L:1/8
Q: 1/4=100
K:D
V:1 
%N:Stacey Phillips/Pete Sutherland
"A"[e4e][e3e]d | cAcd e2 ec | "G"BABc dfed | BABc dfed |
"A"cBAc "G(E7)"BAGD | "A"EA2 BA2 Ac | "G(E7)"BA G2 "A"[A4A] :|
|:a3 b aged | cAcd e2 ef | "G"gfga gfed | "(D)"BABd e2 (3ef^g |
"A"a^gab afed | cAcd e^def | "G"gfga gfeg | "D"f [d2f][df][d4f]:|
% abcbook-tune_id 6298c297d8ed5e717159b6c8


% abcbook-boost 0
% abcbook-tablature 
% abcbook-transpose 
% abcbook-lastupdated 1654178457149
% abcbook-soundfonts 
% abcbook-repeats 1


